X: 346
T: The City Volunteers
%R: jig
Z: 2014 John Chambers <jc:trillian.mit.edu>
B: Preston "Twenty four Country Dances for the Year 1798" p.153 #2
F: http://www.vwml.org/browse/browse-collections-dance-tune-books/browse-prestons1798# 2014-8-10
N: The dance uses the unusual abbreviation "1t" for "first".
M: 6/8
L: 1/8
K: Bb
|:\
fgf fdB | fgf fdB | gfe {e}dcB | AcA F2f |\
fgf fdB | fgf fdB | gec AcA | B3 B,3 :|
|:\
cdc afc | cdc A2A | cdc afc | d3 c2f |\
fgf f=e_e | efe d2d | ceg BcA | B3 B,3 :|
% - - - - - - - - - - - - - - - - - - - - - - - - -
%%begintext align
%% 1st Lady set to the 2d Gent: and turn
%% quite round 1st Gent: set to the 2d Lady
%% & turn the same 1st & 2d Cu: Promenade
%% round. 1t Cu: set and cast down 1 Cu:
%%endtext
% - - - - - - - - - - - - - - - - - - - - - - - - -

%%sep 1 1 500
%%sep 1 1 500
